X:1
T:Crows in the Garden
M:4/4
L:1/8
K:F
 F2 FF F2 A2| FF C2 F4| A2 AA A2 c2| AA F2 A4| c2 B2 B2 G2| BB AA A2 F2|\
 G^F GA B2 E2| F8| F2 FF F2 AA| F2 CC F4| A2 AA A2 cc| A2 FF A4| c2 B2 B2 G2|\
 BB AA A2 F2| GG ^FF GG A2| B2 E2 F2 G2| GG GG EE GG| c2 E2 G2 G2|\
 G2 D2 G2 GG| E2 C2 G2 G2| GG GG EE GG| c2 =B2 B2 AA| G2 FF E2 D2|\
 C4 B2 B2| AA AA A2 A2| c2 F2 A4| AA AA G2 B2| d2 c2 c4| FF FF AA AA|\
 c2 F2 A2 AA| GG GA B2 E2| F8|
